X: 405
T: The Yellow Garron
N:"With spirit"
N:"collected by J.O'Neill"
N:Irish title: an garran bui.de
B:O'Neill's 405
Z:Transcribed by henrik.norbeck@mailbox.swipnet.se
M:2/4
L:1/8
K:AMix
A>B cA | dc B^G | A>B cA | Bc d2 |
f>e dA/B/ | cc Bc | dB AF | DF/A/ B2 ||
A>D DF | E/D/E/F/ EF/G/ | A>D DF | EF B2 |
A>D DF | F/E/F/D/ EA | dc/B/ AF | DF A2 ||


